!!!OTL: Hochzeitslied.
!!!OTL-incipit: HEUT SAND NACHBARSLEUT WIEDER ALL VOLL FREUD
!!!ARE: Europa, Mitteleuropa, Deutschland, Bayern
!!!SCT: Z1325
!!!YEM: Copyright 1995, estate of Helmut Schaffrath.
**kern	**text
*ICvox	*
*M3/4	*
*k[f#]	*
*G:	*
!LO:TX:a:t=Aus Bayern.	!
{8b	Heut
8g	ſand
=1	=1
8f#	Nachbarsleut'
8a	.
8aL	.
8dJ	.
8f#	wieder
8a	.
=2	=2
8cc	all
8b	voll
8bL	Freud,
8dJ}	.
{8g	wie
8b/	am
=3	=3
8dd	Kir-
8cc	-ta
8cc	ʒ'nächſt
8d	ver-
8f#	-ſam-
8a	-melt
=4	=4
4g	hier,
4r}	.
{8b/	ſelbſt
8g	der
=5	=5
8f#	Steffel
8a	.
8a	Baua,
8d	.
8f#	der
8a	do
=6	=6
8cc	war
8b	der
8b/	Faula,
8d}	.
{8g	ſchleicht
8b/	ſie
=7	=7
8dd	a
8cc	grad
8cc	ei-
8d	-na
8f#	bei
8a	der
=8	=8
4g	Thür.
4r}	.
{8f#	No
8a	dös
=9	=9
8ee	is
8dd	mei
8ddL	Leb'n,
8dJ	.
8f#	wenn
8a	enk
=10	=10
8cc	all
8b	thua
8bL	ſehn,
8dJ}	.
{8g	von
8b/	dem
=11	=11
8dd	Tag
8cc	müßts
8cc	künf-
8d	-tigs
8f#	Jahr
8a	no
=12	=12
4b	red'n,
4r}	.
{8f#	denn
8a	i
=13	=13
8ee	ſag
8dd	enk
8dd	frö-
8d	-li,
8f#	daß
8a	ſeit
=14	=14
8cc	Lenʒel
8b	.
8b/	ſe-
8d}	-li,
{8g	mehr
8b/	koa
=15	=15
8dd	ſol-
8cc	-cha
8cc	Hoch-
8d	-ʒeit-
8f#	-tag
8a	is
=16	=16
4g	g'wen.
4r}	.
{(12bL	Dio
12aJ	.
12g)	.
=17	=17
8f#L	do
8aJ	.
4.a	da
8cc	.
=18	=18
8eeL	.
8ddJ	.
4.b}	.
{8g	.
=19	=19
8ddL	.
8ccJ	.
4.a	.
8f#	.
=20	=20
8ccL	.
8bJ	.
4g}	.
{(>12bL	.
12aJ	.
12g)	.
=21	=21
8f#L	.
8aJ	.
4.a	.
8cc	.
=22	=22
8eeL	.
8ddJ	.
4.b}	.
{8g	.
=23	=23
8ddL	.
8ccJ	.
8aL	.
8ccJ	.
8f#L	.
8aJ	.
=24	=24
4g	.
4r}	.
==	==
!!!AGN: Zech -, Schalks -, Hochzeits - Lied; Staende -, Bauern - Lied, Jodler
!!!ONB: ESAC (Essen Associative Code) Database: ZUCCAL
!!!AMT: simple triple
!!!AIN: vox
!!!EED: Helmut Schaffrath
!!!EEV: 1.0
!!!RDF**kern: >= above
!!!GTL: VIII. Zech- und Schalks-Lieder.
!!!URL-scan: https://www.digitale-sammlungen.de/de/view/bsb11160573?page=597
!!!ENC: Anna Maria Matuszewska
!!!EEV: 2025/02/07
*-	*-
